!!!OTL: Der heimkehrende Soldat Ein Soldat zog in ein Wirtshaus ein, hurrah!
!!!ARE: Europa, Mitteleuropa, Deutschland (), Thueringen
!!!YOR: 5, S. 162
!!    ????
!!!SCT: Q0103M
!!!YEM: Copyright 1995, estate of Helmut Schaffrath.
**kern
*ICvox
*Ivox
*M4/4
*k[f#]
*G:
{8d
8d
=1
4.g
8g
8g
8g
8g
8g
=2
4a
4d
4d}
{8a
8a
=3
4.a
8a
8a
8a
8dd
8cc
=4
4b
4g
4g}
{8dd
8cc
=5
4b
4b
4b
4dd
=6
4.dd
8cc
4cc}
{8cc
8b
=7
4a
4a
4a
4ee
=8
4.ee
8dd
4dd}
{4cc
=9
4b
4b
4a
4a
=10
2g
4r}
==
!!!AGN: Ballade, Ehe, Betrug
!! Anhaengsel; letzte Zeile = Refrain.
!!!ONB: ESAC (Essen Associative Code) Database: BALLADE
!!!AMT: simple quadruple
!!!AIN: vox
!!!EED: Helmut Schaffrath
!!!EEV: 1.0
*-
